X:1
T: Kerrs First Jig #7
C:
R:Jig
Q:180
K:A
M:6/8
L:1/16
|:e2|e4e2 c2d2f2|f4f2 f4f2|g2f2g2 e2f2g2|a4a2 a4a2|
e4e2 c2d2e2|f4g2 a2g2f2|e2f2e2 d2c2B2|A6a4E2|
A4A2 A2G2A2|B4B2 e4e2|c4c2 A4A2|G2A2B2 E2F2G2|
A4A2 A2G2A2|B4B2 e4e2|c2f2e2 d2c2B2|A6a4:|
